img/icons/mono/icon-red-pan.svg

<svg width="18" height="18" viewBox="0 0 18 18" fill="none" xmlns="http://www.w3.org/2000/svg">
<path d="M7 2.77778H11C11.2652 2.77778 11.5196 2.87143 11.7071 3.03813C11.8946 3.20483 12 3.43092 12 3.66667V13.08C11.9989 13.3132 11.8947 13.5367 11.71 13.7022L9 16.1111L6.29 13.7022C6.10526 13.5367 6.0011 13.3132 6 13.08V3.66667C6 3.43092 6.10536 3.20483 6.29289 3.03813C6.48043 2.87143 6.73478 2.77778 7 2.77778V2.77778ZM9 16.1111V17V16.1111ZM10 1H8V2.77778H10V1Z" stroke="#EE5238" stroke-width="1.5" stroke-linecap="round" stroke-linejoin="round"/>
</svg>

<svg width="18" height="18" fill="none" xmlns="http://www.w3.org/2000/svg"><path d="M7 2.778h4c.265 0 .52.093.707.26a.842.842 0 01.293.629v9.413a.842.842 0 01-.29.622L9 16.112l-2.71-2.41A.842.842 0 016 13.08V3.667c0-.236.105-.462.293-.629.187-.167.442-.26.707-.26v0zM9 16.11V17v-.889zM10 1H8v1.778h2V1z" stroke="#EE5238" stroke-width="1.5" stroke-linecap="round" stroke-linejoin="round"/></svg>
